packages/astro-components-stencil/src/icons/3d-rotation.svg

<svg width="24" height="24" viewBox="0 0 24 24" fill="none" xmlns="http://www.w3.org/2000/svg">
<path fill-rule="evenodd" clip-rule="evenodd" d="M15.0107 3.8424L16.3407 2.5124C19.4307 3.9724 21.6807 6.8824 22.2307 10.3724C22.2907 10.7824 22.6707 11.0624 23.0907 10.9924C23.5007 10.9324 23.7807 10.5424 23.7107 10.1324C23.1107 6.3224 20.7507 3.1224 17.4707 1.3824C15.8007 0.492401 13.6407 -0.127599 11.2007 0.022401L15.0107 3.8424ZM8.27073 14.9624C8.08073 14.9624 7.90073 14.9324 7.75073 14.8824C7.59073 14.8224 7.46073 14.7524 7.35073 14.6424C7.24073 14.5424 7.15073 14.4224 7.09073 14.2724C7.03073 14.1324 7.00073 13.9724 7.00073 13.8024H5.70073C5.70073 14.1624 5.77073 14.4824 5.91073 14.7524C6.05073 15.0224 6.24073 15.2524 6.47073 15.4424C6.71073 15.6224 6.98073 15.7624 7.29073 15.8524C7.59073 15.9524 7.91073 16.0024 8.25073 16.0024C8.62073 16.0024 8.97073 15.9524 9.28073 15.8524C9.60073 15.7524 9.88073 15.6024 10.1107 15.4124C10.3407 15.2224 10.5307 14.9824 10.6607 14.6924C10.7907 14.4024 10.8607 14.0824 10.8607 13.7224C10.8607 13.5324 10.8407 13.3424 10.7907 13.1624C10.7407 12.9824 10.6707 12.8124 10.5607 12.6524C10.4607 12.4924 10.3207 12.3524 10.1607 12.2224C9.99073 12.0924 9.79073 11.9924 9.55073 11.9124C9.75073 11.8224 9.92073 11.7124 10.0707 11.5824C10.2207 11.4524 10.3407 11.3124 10.4407 11.1624C10.5407 11.0124 10.6107 10.8624 10.6607 10.7024C10.7107 10.5424 10.7307 10.3824 10.7307 10.2224C10.7307 9.8624 10.6707 9.5424 10.5507 9.2624C10.4307 8.9824 10.2607 8.7524 10.0407 8.5724C9.84073 8.3824 9.57073 8.2424 9.27073 8.1424C8.96073 8.0524 8.62073 8.0024 8.25073 8.0024C7.89073 8.0024 7.56073 8.0524 7.25073 8.1624C6.95073 8.2724 6.68073 8.4224 6.46073 8.6124C6.25073 8.8024 6.08073 9.0224 5.95073 9.2824C5.83073 9.5424 5.77073 9.8224 5.77073 10.1324H7.07073C7.07073 9.9624 7.10073 9.8124 7.16073 9.6824C7.22073 9.5524 7.30073 9.4324 7.41073 9.3424C7.52073 9.2524 7.64073 9.1724 7.79073 9.1224C7.94073 9.0724 8.09073 9.0424 8.27073 9.0424C8.67073 9.0424 8.97073 9.1424 9.16073 9.3524C9.35073 9.5524 9.45073 9.8424 9.45073 10.2124C9.45073 10.3924 9.42073 10.5524 9.37073 10.7024C9.32073 10.8524 9.23073 10.9724 9.12073 11.0724C9.01073 11.1724 8.87073 11.2524 8.71073 11.3124C8.55073 11.3724 8.35073 11.4024 8.13073 11.4024H7.36073V12.4324H8.13073C8.35073 12.4324 8.55073 12.4524 8.73073 12.5024C8.91073 12.5524 9.06073 12.6324 9.18073 12.7324C9.30073 12.8424 9.40073 12.9724 9.47073 13.1324C9.54073 13.2924 9.57073 13.4824 9.57073 13.7024C9.57073 14.1124 9.45073 14.4224 9.22073 14.6324C8.99073 14.8624 8.67073 14.9624 8.27073 14.9624ZM17.5707 10.2424C17.3907 9.7724 17.1407 9.3724 16.8207 9.0424C16.5007 8.7124 16.1207 8.4524 15.6807 8.2724C15.2507 8.0924 14.7607 8.0024 14.2207 8.0024H11.8607V16.0024H14.1607C14.7107 16.0024 15.2207 15.9124 15.6707 15.7324C16.1207 15.5524 16.5107 15.3024 16.8307 14.9724C17.1507 14.6424 17.4007 14.2424 17.5707 13.7824C17.7407 13.3124 17.8307 12.7924 17.8307 12.2124V11.8124C17.8307 11.2324 17.7407 10.7124 17.5707 10.2424ZM16.3007 13.3324C16.3907 12.9924 16.4407 12.6224 16.4407 12.2024V11.7924C16.4407 10.9224 16.2507 10.2624 15.8707 9.8024C15.5007 9.3424 14.9507 9.1124 14.2307 9.1124H13.2607V14.8924H14.1707C14.5407 14.8924 14.8707 14.8324 15.1607 14.7124C15.4407 14.5924 15.6807 14.4124 15.8707 14.1824C16.0607 13.9524 16.2007 13.6624 16.3007 13.3324ZM7.38073 21.4824L8.71073 20.1524L12.5207 23.9724C10.0807 24.1224 7.92073 23.5024 6.25073 22.6124C2.97073 20.8724 0.610731 17.6724 0.0107311 13.8624C-0.0592689 13.4524 0.220731 13.0624 0.630731 13.0024C1.05073 12.9324 1.43073 13.2124 1.49073 13.6224C2.04073 17.1124 4.29073 20.0224 7.38073 21.4824Z" fill="black"/>
</svg>

<svg xmlns="http://www.w3.org/2000/svg" viewBox="0 0 24 24"><g xmlns="http://www.w3.org/2000/svg" id="3d-rotation" fill-rule="nonzero">
            <path d="M8.27 14.962c-.19 0-.37-.03-.52-.08a1.07 1.07 0 01-.4-.24c-.11-.1-.2-.22-.26-.37-.06-.14-.09-.3-.09-.47H5.7c0 .36.07.68.21.95.14.27.33.5.56.69.24.18.51.32.82.41.3.1.62.15.96.15.37 0 .72-.05 1.03-.15.32-.1.6-.25.83-.44.23-.19.42-.43.55-.72.13-.29.2-.61.2-.97 0-.19-.02-.38-.07-.56a1.67 1.67 0 00-.23-.51c-.1-.16-.24-.3-.4-.43-.17-.13-.37-.23-.61-.31a2.098 2.098 0 00.89-.75c.1-.15.17-.3.22-.46.05-.16.07-.32.07-.48 0-.36-.06-.68-.18-.96a1.78 1.78 0 00-.51-.69c-.2-.19-.47-.33-.77-.43-.31-.09-.65-.14-1.02-.14-.36 0-.69.05-1 .16-.3.11-.57.26-.79.45-.21.19-.38.41-.51.67-.12.26-.18.54-.18.85h1.3c0-.17.03-.32.09-.45a.94.94 0 01.25-.34c.11-.09.23-.17.38-.22.15-.05.3-.08.48-.08.4 0 .7.1.89.31.19.2.29.49.29.86 0 .18-.03.34-.08.49a.87.87 0 01-.25.37c-.11.1-.25.18-.41.24-.16.06-.36.09-.58.09h-.77v1.03h.77c.22 0 .42.02.6.07s.33.13.45.23c.12.11.22.24.29.4.07.16.1.35.1.57 0 .41-.12.72-.35.93-.23.23-.55.33-.95.33zm9.3-4.72c-.18-.47-.43-.87-.75-1.2-.32-.33-.7-.59-1.14-.77-.43-.18-.92-.27-1.46-.27h-2.36v8h2.3c.55 0 1.06-.09 1.51-.27.45-.18.84-.43 1.16-.76.32-.33.57-.73.74-1.19.17-.47.26-.99.26-1.57v-.4c0-.58-.09-1.1-.26-1.57zm-1.13 1.96c0 .42-.05.79-.14 1.13-.1.33-.24.62-.43.85-.19.23-.43.41-.71.53-.29.12-.62.18-.99.18h-.91v-5.78h.97c.72 0 1.27.23 1.64.69.38.46.57 1.12.57 1.99v.41zm-1.43-8.36l1.33-1.33c3.09 1.46 5.34 4.37 5.89 7.86.06.41.44.69.86.62.41-.06.69-.45.62-.86-.6-3.81-2.96-7.01-6.24-8.75A11.81 11.81 0 0011.2.022l3.81 3.82zm-6.3 16.31l-1.33 1.33a10.504 10.504 0 01-5.89-7.86.737.737 0 00-.86-.62c-.41.06-.69.45-.62.86.6 3.81 2.96 7.01 6.24 8.75 1.67.89 3.83 1.51 6.27 1.36l-3.81-3.82z"/>
        </g></svg>
